world_stage/static/flags/rect/pan.svg

<svg height="400" viewBox="0 0 600 400" width="600" xmlns="http://www.w3.org/2000/svg"><path d="m0 0h450v300h-450z" fill="#fff" transform="matrix(1.3333333 0 0 -1.3333333 0 400)"/><g fill="#005293"><path d="m0 0-11.588-35.665 17.832-5.793z" transform="matrix(1.3333333 0 0 -1.3333333 150 50)"/><path d="m0 0 11.588-35.665-17.832-5.793z" transform="matrix(1.3333333 0 0 -1.3333333 150 50)"/><path d="m0 0h-37.5v-18.75z" transform="matrix(1.3333333 0 0 -1.3333333 197.5528 84.5488)"/><path d="m0 0-30.338-22.042-11.021 15.169z" transform="matrix(1.3333333 0 0 -1.3333333 197.5528 84.5488)"/><path d="m0 0-11.588 35.665-17.832-5.794z" transform="matrix(1.3333333 0 0 -1.3333333 179.38933 140.4512)"/><path d="m0 0-30.338 22.042 11.021 15.169z" transform="matrix(1.3333333 0 0 -1.3333333 179.38933 140.4512)"/><path d="m0 0 30.338 22.042-11.021 15.169z" transform="matrix(1.3333333 0 0 -1.3333333 120.61067 140.4512)"/><path d="m0 0 11.588 35.665 17.832-5.794z" transform="matrix(1.3333333 0 0 -1.3333333 120.61067 140.4512)"/><path d="m0 0 30.338-22.042 11.021 15.169z" transform="matrix(1.3333333 0 0 -1.3333333 102.4472 84.5488)"/><path d="m0 0h37.5v-18.75z" transform="matrix(1.3333333 0 0 -1.3333333 102.4472 84.5488)"/><path d="m0 0h225v150h-225z" transform="matrix(1.3333333 0 0 -1.3333333 0 400)"/></g><g fill="#d21034"><path d="m225 150h225v149.999h-225z" transform="matrix(1.3333333 0 0 -1.3333333 0 400)"/><path d="m0 0-11.588-35.665 17.832-5.794z" transform="matrix(1.3333333 0 0 -1.3333333 450 250)"/><path d="m0 0 11.588-35.665-17.832-5.794z" transform="matrix(1.3333333 0 0 -1.3333333 450 250)"/><path d="m0 0h-37.5v-18.75z" transform="matrix(1.3333333 0 0 -1.3333333 497.55333 284.54947)"/><path d="m0 0-30.339-22.042-11.02 15.169z" transform="matrix(1.3333333 0 0 -1.3333333 497.55333 284.54947)"/><path d="m0 0-11.588 35.664-17.833-5.794z" transform="matrix(1.3333333 0 0 -1.3333333 479.38933 340.45053)"/><path d="m0 0-30.338 22.042 11.021 15.169z" transform="matrix(1.3333333 0 0 -1.3333333 479.38933 340.45053)"/><path d="m0 0 30.338 22.042-11.021 15.169z" transform="matrix(1.3333333 0 0 -1.3333333 420.61067 340.45053)"/><path d="m0 0 11.588 35.664 17.833-5.794z" transform="matrix(1.3333333 0 0 -1.3333333 420.61067 340.45053)"/><path d="m0 0 30.339-22.042 11.02 15.169z" transform="matrix(1.3333333 0 0 -1.3333333 402.44667 284.54947)"/><path d="m0 0h37.5v-18.75z" transform="matrix(1.3333333 0 0 -1.3333333 402.44667 284.54947)"/></g></svg>

<?xml version="1.0" encoding="UTF-8" standalone="no"?>
<!-- Created with Inkscape (http://www.inkscape.org/) -->

<svg
   version="1.1"
   id="svg1"
   width="600"
   height="400"
   viewBox="0 0 600 400"
   sodipodi:docname="pa.ai"
   xmlns:inkscape="http://www.inkscape.org/namespaces/inkscape"
   xmlns:sodipodi="http://sodipodi.sourceforge.net/DTD/sodipodi-0.dtd"
   xmlns="http://www.w3.org/2000/svg"
   xmlns:svg="http://www.w3.org/2000/svg">
  <defs
     id="defs1" />
  <sodipodi:namedview
     id="namedview1"
     pagecolor="#ffffff"
     bordercolor="#000000"
     borderopacity="0.25"
     inkscape:showpageshadow="2"
     inkscape:pageopacity="0.0"
     inkscape:pagecheckerboard="0"
     inkscape:deskcolor="#d1d1d1">
    <inkscape:page
       x="0"
       y="0"
       inkscape:label="1"
       id="page1"
       width="600"
       height="400"
       margin="0"
       bleed="0" />
  </sodipodi:namedview>
  <g
     id="layer-MC0"
     inkscape:groupmode="layer"
     inkscape:label="Layer 1">
    <path
       id="path1"
       d="M 0,0 H 450 V 300 H 0 Z"
       style="fill:#ffffff;fill-opacity:1;fill-rule:nonzero;stroke:none"
       transform="matrix(1.3333333,0,0,-1.3333333,0,400)" />
    <path
       id="path2"
       d="M 0,0 -11.588,-35.665 6.244,-41.458 Z"
       style="fill:#005293;fill-opacity:1;fill-rule:nonzero;stroke:none"
       transform="matrix(1.3333333,0,0,-1.3333333,150,50)" />
    <path
       id="path3"
       d="M 0,0 11.588,-35.665 -6.244,-41.458 Z"
       style="fill:#005293;fill-opacity:1;fill-rule:nonzero;stroke:none"
       transform="matrix(1.3333333,0,0,-1.3333333,150,50)" />
    <path
       id="path4"
       d="M 0,0 H -37.5 V -18.75 Z"
       style="fill:#005293;fill-opacity:1;fill-rule:nonzero;stroke:none"
       transform="matrix(1.3333333,0,0,-1.3333333,197.5528,84.5488)" />
    <path
       id="path5"
       d="M 0,0 -30.338,-22.042 -41.359,-6.873 Z"
       style="fill:#005293;fill-opacity:1;fill-rule:nonzero;stroke:none"
       transform="matrix(1.3333333,0,0,-1.3333333,197.5528,84.5488)" />
    <path
       id="path6"
       d="M 0,0 -11.588,35.665 -29.42,29.871 Z"
       style="fill:#005293;fill-opacity:1;fill-rule:nonzero;stroke:none"
       transform="matrix(1.3333333,0,0,-1.3333333,179.38933,140.4512)" />
    <path
       id="path7"
       d="m 0,0 -30.338,22.042 11.021,15.169 z"
       style="fill:#005293;fill-opacity:1;fill-rule:nonzero;stroke:none"
       transform="matrix(1.3333333,0,0,-1.3333333,179.38933,140.4512)" />
    <path
       id="path8"
       d="M 0,0 30.338,22.042 19.317,37.211 Z"
       style="fill:#005293;fill-opacity:1;fill-rule:nonzero;stroke:none"
       transform="matrix(1.3333333,0,0,-1.3333333,120.61067,140.4512)" />
    <path
       id="path9"
       d="M 0,0 11.588,35.665 29.42,29.871 Z"
       style="fill:#005293;fill-opacity:1;fill-rule:nonzero;stroke:none"
       transform="matrix(1.3333333,0,0,-1.3333333,120.61067,140.4512)" />
    <path
       id="path10"
       d="M 0,0 30.338,-22.042 41.359,-6.873 Z"
       style="fill:#005293;fill-opacity:1;fill-rule:nonzero;stroke:none"
       transform="matrix(1.3333333,0,0,-1.3333333,102.4472,84.5488)" />
    <path
       id="path11"
       d="M 0,0 H 37.5 V -18.75 Z"
       style="fill:#005293;fill-opacity:1;fill-rule:nonzero;stroke:none"
       transform="matrix(1.3333333,0,0,-1.3333333,102.4472,84.5488)" />
    <path
       id="path12"
       d="M 0,0 H 225 V 150 H 0 Z"
       style="fill:#005293;fill-opacity:1;fill-rule:nonzero;stroke:none"
       transform="matrix(1.3333333,0,0,-1.3333333,0,400)" />
    <path
       id="path13"
       d="M 225,150 H 450 V 299.999 H 225 Z"
       style="fill:#d21034;fill-opacity:1;fill-rule:nonzero;stroke:none"
       transform="matrix(1.3333333,0,0,-1.3333333,0,400)" />
    <path
       id="path14"
       d="M 0,0 -11.588,-35.665 6.244,-41.459 Z"
       style="fill:#d21034;fill-opacity:1;fill-rule:nonzero;stroke:none"
       transform="matrix(1.3333333,0,0,-1.3333333,450,250)" />
    <path
       id="path15"
       d="M 0,0 11.588,-35.665 -6.244,-41.459 Z"
       style="fill:#d21034;fill-opacity:1;fill-rule:nonzero;stroke:none"
       transform="matrix(1.3333333,0,0,-1.3333333,450,250)" />
    <path
       id="path16"
       d="M 0,0 H -37.5 V -18.75 Z"
       style="fill:#d21034;fill-opacity:1;fill-rule:nonzero;stroke:none"
       transform="matrix(1.3333333,0,0,-1.3333333,497.55333,284.54947)" />
    <path
       id="path17"
       d="m 0,0 -30.339,-22.042 -11.02,15.169 z"
       style="fill:#d21034;fill-opacity:1;fill-rule:nonzero;stroke:none"
       transform="matrix(1.3333333,0,0,-1.3333333,497.55333,284.54947)" />
    <path
       id="path18"
       d="M 0,0 -11.588,35.664 -29.421,29.87 Z"
       style="fill:#d21034;fill-opacity:1;fill-rule:nonzero;stroke:none"
       transform="matrix(1.3333333,0,0,-1.3333333,479.38933,340.45053)" />
    <path
       id="path19"
       d="m 0,0 -30.338,22.042 11.021,15.169 z"
       style="fill:#d21034;fill-opacity:1;fill-rule:nonzero;stroke:none"
       transform="matrix(1.3333333,0,0,-1.3333333,479.38933,340.45053)" />
    <path
       id="path20"
       d="M 0,0 30.338,22.042 19.317,37.211 Z"
       style="fill:#d21034;fill-opacity:1;fill-rule:nonzero;stroke:none"
       transform="matrix(1.3333333,0,0,-1.3333333,420.61067,340.45053)" />
    <path
       id="path21"
       d="M 0,0 11.588,35.664 29.421,29.87 Z"
       style="fill:#d21034;fill-opacity:1;fill-rule:nonzero;stroke:none"
       transform="matrix(1.3333333,0,0,-1.3333333,420.61067,340.45053)" />
    <path
       id="path22"
       d="m 0,0 30.339,-22.042 11.02,15.169 z"
       style="fill:#d21034;fill-opacity:1;fill-rule:nonzero;stroke:none"
       transform="matrix(1.3333333,0,0,-1.3333333,402.44667,284.54947)" />
    <path
       id="path23"
       d="M 0,0 H 37.5 V -18.75 Z"
       style="fill:#d21034;fill-opacity:1;fill-rule:nonzero;stroke:none"
       transform="matrix(1.3333333,0,0,-1.3333333,402.44667,284.54947)" />
  </g>
</svg>
